X: 138032
Q: "Irish Jig."
M: 6/8
L: 1/8
K: Am
[|\
ve2v^f ug2ua | g2e dBG | e2^f g2a | bge bge |
e2^f g2a | g^fe dBd | e^fg edB | A3 e3 |[|\
vA2ve uA2ue | A2e ede | A2e A2e | A2e dcB |\


